archdroid-icon-theme/Archdroid-LightGreen/actions/scalable/font-select.svg

<?xml version="1.0" encoding="UTF-8" standalone="no"?>
<svg
   xmlns:dc="http://purl.org/dc/elements/1.1/"
   xmlns:cc="http://creativecommons.org/ns#"
   xmlns:rdf="http://www.w3.org/1999/02/22-rdf-syntax-ns#"
   xmlns:svg="http://www.w3.org/2000/svg"
   xmlns="http://www.w3.org/2000/svg"
   xmlns:sodipodi="http://sodipodi.sourceforge.net/DTD/sodipodi-0.dtd"
   xmlns:inkscape="http://www.inkscape.org/namespaces/inkscape"
   fill="#8BC34A"
   width="48"
   height="48"
   viewBox="0 0 48 48"
   id="svg2"
   version="1.1"
   inkscape:version="0.91 r13725"
   sodipodi:docname="font-select.svg">
  <metadata
     id="metadata12">
    <rdf:RDF>
      <cc:Work
         rdf:about="">
        <dc:format>image/svg+xml</dc:format>
        <dc:type
           rdf:resource="http://purl.org/dc/dcmitype/StillImage" />
      </cc:Work>
    </rdf:RDF>
  </metadata>
  <defs
     id="defs10" />
  <sodipodi:namedview
     pagecolor="#ffffff"
     bordercolor="#666666"
     borderopacity="1"
     objecttolerance="10"
     gridtolerance="10"
     guidetolerance="10"
     inkscape:pageopacity="0"
     inkscape:pageshadow="2"
     inkscape:window-width="1366"
     inkscape:window-height="713"
     id="namedview8"
     showgrid="false"
     inkscape:snap-bbox="true"
     inkscape:bbox-nodes="true"
     inkscape:snap-page="true"
     inkscape:zoom="3.897603885191483"
     inkscape:cx="39.4015399368523"
     inkscape:cy="-6.169961598908287"
     inkscape:window-x="0"
     inkscape:window-y="30"
     inkscape:window-maximized="1"
     inkscape:current-layer="svg2" />
  <path
     id="path4157"
     style="opacity:1;fill:#8BC34A;fill-opacity:1;fill-rule:nonzero;stroke:none;stroke-width:3;stroke-miterlimit:4;stroke-dasharray:none;stroke-opacity:1"
     d="m 4,34 0,10 9.999999999999969,0 0,-4 L 8,40 8,34 4,34 Z M 4,14 4,4.000000000000002 l 9.999999999999969,0 0,4 L 8,8.000000000000001 8,14 4,14 Z m 39.999999999999971,0 0,-9.9999999999999982 -9.99999999999997,0 0,4 5.99999999999997,0 0,5.999999999999999 4,0 z m 0,20 0,10 L 34,44 l 0,-4 5.99999999999997,0 0,-6 4,0 z M 22,8 11,36 l 4.5,0 2.25,-6 12.5,0 2.25,6 L 37,36 26,8 22,8 Z M 19.25,26 24,13.33 28.75,26 l -9.5,0 z" />
</svg>

<svg xmlns="http://www.w3.org/2000/svg" fill="#8BC34A" viewBox="0 0 48 48"><path d="m4 34v10h10v-4h-6v-6h-4m0-20v-10h10v4h-6v6h-4m40 0v-10h-10v4h6v6h4zm0 20v10h-10v-4h6v-6h4m-22-26l-11 28h4.5l2.25-6h12.5l2.25 6h4.5l-11-28h-4m-2.75 18l4.75-12.67 4.75 12.67h-9.5z" fill="#8BC34A"/></svg>
